X: 23
P: No. XXIII.
M: 6/8
L: 1/8
K: G
V: 1
|: d |\
d>ed dBd | ege Te2d | d>Bd edc | B2A G2e |\
ged  edB | dBA  B2G | ABd e>de | GEE E2 |]
V: 2 clef=bass middle=d
z |\
g3 c'3 | b3 g3 | g3 g3  | c'3 c2 :|
|: z |\
g3 g3 | c'3 g3 | b3 c'3 | d'2d g3 |\
g3 g3 | d3  g3 | f3 g3  | c'3  c2 |]

